X:1
T:Title
%%score { 1 | 2 }
L:1/8
M:8/4
K:Eb
V:1 treble nm="Grand Piano"
V:2 bass 
V:1
 z8 z4 z2[Q:1/4=116] [GB]2 | [Ge]4 [Ad]2 [Ac]2 B2 G4 B2 | [Ec]4 [DB]2 [DA]2 [EG]6 [EG]2 | %3
 G4 G2 F2 B2 G4 [GB]2 | c4 d2 e2 [Fd]4 z2 [DB]2 | e4 d2 c2 B2 G4 [B,E]2 | %6
 [Ec]4 [DB]2 [DA]2 [EG]6 [EG]2 | [EF]4 [Ed]2 [Ec]2 [EB]2 [EG]4 [DF]2 |[M:7/4] E2- E2- E2- E6 z2 | %9
[M:1/4] G2 |[M:8/4] G4 G2 G2 G2 G4 G2 | A4 E2 F2 G6 G2 | c4 c2 c2 B2 G4 [Ge]2 | %13
 d4 c2 c2 [DB]4 z2 [Dc]2 | e4 d2 c2 B2 G4 [B,E]2 | [Ec]4 [DB]2 [DA]2 [EG]6 [EG]2 | %16
 [EF]4 [Ed]2 [Ec]2 [EB]2 [EG]4 [DF]2 |[M:7/4] E2- E2- E2- E6 z2 |] %18
V:2
 z8 z4 z2 [E,B,]2 | [E,B,]4 [F,B,]2 [F,B,]2 [G,B,E]2 [E,B,E]4 [E,G,E]2 | %2
 [A,,A,]4 [B,,F,]2 [B,,B,]2 [E,B,]6 [C,C]2 | [F,CE]4 [B,D]2 [A,B,D]2 [G,B,E]2 [E,B,E]4 [E,B,]2 | %4
 [F,=A,E]4 [F,A,F]2 [F,A,F]2 [B,,B,]4 z2 [B,,A,]2 | %5
 [E,G,E]4 [F,A,E]2 [F,A,E]2 [G,B,E]2 [E,B,E]4 G,,2 | [A,,A,]4 [B,,F,]2 [B,,F,]2 [C,E,]6 [C,E,]2 | %7
 [A,,A,]4 [A,,F,]2 [A,,F,]2 [B,,G,]2 [B,,B,]4 [B,,A,]2 | %8
[M:7/4] [E,G,]2- [E,G,]2- [E,G,]2- [E,G,]6 z2 |[M:1/4] G,2 | %10
[M:8/4] G,4 [G,=B,D]2 [G,B,D]2 [G,CE]2 [G,CE]4 [G,CE]2 | %11
 [A,CE]4 [E,C]2 [F,CE]2 [G,=B,D]6 [G,B,D]2 | [A,CE]4 [A,E]2 [A,E]2 [G,B,E]2 [E,B,E]4 [E,B,]2 | %13
 [F,B,F]4 [F,=A,E]2 [F,A,E]2 [B,,B,]4 z2 [B,,A,]2 | %14
 [E,G,E]4 [F,A,E]2 [F,A,E]2 [G,B,E]2 [E,B,E]4 G,,2 | [A,,A,]4 [B,,F,]2 [=B,,F,]2 [C,E,]6 [C,G,]2 | %16
 [A,,A,]4 [A,,F,]2 [A,,F,]2 [B,,G,]2 [B,,B,]4 [B,,A,]2 | %17
[M:7/4] [E,G,]2- [E,G,]2- [E,G,]2- [E,G,]6 z2 |] %18

